X: 1
T: Creamonea
B: A COLECTION of the most Celebrated Irish Tunes11b
M: 3/4
L: 1/8
K: Gm
GA |\
B2 cBAB | G4   ga | gf edcB |\
c2 F2GA | B2 AGAB | c2 F2GA | B2 cBAB | G4 ||
df |\
g2 gfdf | g2 g2cd | fg fdcd | f2 f2Bc |\
d2 edcB | c2 dcBG | B2 cBAB | G4 |]
